X:21
T:Kilsh Bamourt
D:Sear Nergin
Z:id:hn-hornpipe-78
M:C|
K:Dmix
d^cAG FA~G2|(3EFG gdcB G2gf|f2


*****************************


11700 3 0.7565371 

<starthougle@cape|arec d2 (3cBc Bg |1 peed c2DF | B,2AF Ggdc | AGED A4 :|2 AGGB d2ed ||
|: Bcd | e2ae dgg


*****************************


11800 3 0.8520358 

<start>
